% 
N0002 ; erzeugt  Thu Jan  1 20:59:06 2015 
N0003 ; erwartete Gesamtdauer siehe Ende der Datei 
N0004 G64 P0.05 (Pfadverrundung gegen Ruckeln) 
N0005 G40 (Radiuskomp aus) G18 (XZ Ebene) G94 G80 (Zyklen Reset) G90 (Absolut) G21 (metrisch) G8 (Radius) G91.1 (Arc format incremental) 
N0006 F.01 
N0007 ; 
N0008 ;=================== 
N0009 ; Start of Operation ROUGH_TURN_OD 
N0010 ;=================== 
N0011 (MSG, Pause fuer Werkzeugwechsel nach  T01 ) 
N0012 M00 
N0013 T01 M06 
N0014 G43 (WZL Korrektur an) 
N0015 ; Startbewegung (FROM move) 
N0016 G00 X14.437 
N0017 Z107.156 
N0018 G1  (damit Linuxcnc ab hier Bewegungen plottet) 
N0019 G0 
N0020 G97 S4547 M03 
N0021 F9999. 
N0022 G94 X5.25 Z107.462 
N0023 G96 S150 D4999 
N0024 M03 
N0025 G95 G01 Z106.662 F.5 
N0026 Z-2.123 F.5 
N0027 X6. F.5 
N0028 X6.566 Z-1.558 F.5 
N0029 G94 G00 Z107.775 
N0030 X4.5 
N0031 G95 G01 Z106.975 F.5 
N0032 Z-2.123 F.5 
N0033 X5.25 F.5 
N0034 X5.816 Z-1.558 F.5 
N0035 G94 G00 Z107.8 
N0036 X3.9 
N0037 G95 G01 Z107. F.5 
N0038 Z86.258 F.5 
N0039 X4.405 Z82.422 F.5 
N0040 G03 X4.5 Z80.973 I-11.005 K-1.449 F.5 
N0041 G01 X5.066 Z81.539 F.5 
N0042 G94 G00 Z107.8 
N0043 X3.3 
N0044 G95 G01 Z107. F.5 
N0045 Z90.816 F.5 
N0046 X3.9 Z86.258 F.5 
N0047 X4.466 Z86.824 F.5 
N0048 G94 G00 Z107.8 
N0049 X2.48 
N0050 G95 G01 Z107. F.5 
N0051 Z98.66 F.5 
N0052 G03 X3.3 Z96.2 I-3.28 K-2.46 F.5 
N0053 G01 X3.866 Z96.766 F.5 
N0054 G94 G00 Z107.8 
N0055 X1.66 
N0056 G95 G01 Z107. F.5 
N0057 Z99.48 F.5 
N0058 G03 X2.48 Z98.66 I-2.46 K-3.28 F.5 
N0059 G01 X3.046 Z99.226 F.5 
N0060 G94 G00 Z107.8 
N0061 X.84 
N0062 G95 G01 Z107. F.5 
N0063 Z99.958 F.5 
N0064 G03 X1.66 Z99.48 I-1.64 K-3.758 F.5 
N0065 G01 X2.226 Z100.046 F.5 
N0066 G94 G00 Z107.8 
N0067 X.02 
N0068 G95 G01 Z107. F.5 
N0069 Z100.217 F.5 
N0070 G03 X.84 Z99.958 I-.82 K-4.017 F.5 
N0071 G01 X1.406 Z100.523 F.5 
N0072 G94 G00 Z104.566 
N0073 X-.234 
N0074 G95 G01 X-.8 Z104. F.5 
N0075 Z100.3 F.5 
N0076 G03 X.02 Z100.217 I0.0 K-4.1 F.5 
N0077 G01 X.586 Z100.783 F.5 
N0078 G94 G00 X4.3 
N0079 Z96.2 
N0080 X4.1 
N0081 G95 G01 X3.3 F.5 
N0082 G03 X3.151 Z95.104 I-4.1 K0.0 F.5 
N0083 G01 X2.732 Z93.595 F.5 
N0084 X2.737 Z93.56 F.5 
N0085 X3.033 Z92.846 F.5 
N0086 X3.3 Z90.816 F.5 
N0087 X3.866 Z91.382 F.5 
N0088 G94 G00 X5.5 
N0089 Z.05 
N0090 X5.3 
N0091 G95 G01 X4.5 F.5 
N0092 X3.897 Z-2.123 F.5 
N0093 X4.5 F.5 
N0094 X5.066 Z-1.558 F.5 
N0095 ; 
N0096 ;=================== 
N0097 ; Start of Operation FINISH_TURN_OD 
N0098 ;=================== 
N0099 G97 S4999 M03 
N0100 ; Startbewegung (FROM move) 
N0101 G00 X14.437 
N0102 Z107.156 
N0103 G1  (damit Linuxcnc ab hier Bewegungen plottet) 
N0104 G0 
N0105 G94 X.8 Z101.9 
N0106 G95 G02 X-.8 Z100.3 I0.0 K-1.6 F.4 
N0107 G01 Z100. F.4 
N0108 G03 X2.862 Z95.184 I0.0 K-3.8 F.4 
N0109 G01 X2.427 Z93.617 F.4 
N0110 X2.445 Z93.482 F.4 
N0111 X2.688 Z92.895 F.4 
N0112 G03 X2.759 Z92.631 I-.97 K-.402 F.4 
N0113 G01 X4.108 Z82.383 F.4 
N0114 G03 X4.2 Z80.973 I-10.708 K-1.41 F.4 
N0115 G01 Z.304 F.4 
N0116 G03 X4.162 Z.023 I-1.05 K0.0 F.4 
N0117 G01 X3.624 Z-1.915 F.4 
N0118 X3.955 F.4 
N0119 G02 X5.555 Z-.315 I0.0 K1.6 F.4 
N0120 ; 
N0121 ;=================== 
N0122 ; Start of Operation THREAD_OD 
N0123 ;=================== 
N0124 (MSG, Pause fuer Werkzeugwechsel nach  T07 ) 
N0125 M00 
N0126 T07 M06 
N0127 (WZL Korrektur an) 
N0128 ; Startbewegung (FROM move) 
N0129 G00 X14.437 
N0130 Z107.156 
N0131 G1  (damit Linuxcnc ab hier Bewegungen plottet) 
N0132 G0 
N0133 F9999. 
N0134 G94 X7.066 Z75.124 
N0135 G97 S300 M03 
N0136 G01 X3.746 F250. 
N0137 G33 Z59.624 K1. 
N0138 G01 X7.066 F250. 
N0139 G00 Z75.124 
N0140 G01 X3.522 F250. 
N0141 G33 Z59.624 K1. 
N0142 G01 X7.066 F250. 
N0143 G00 Z75.124 
N0144 G01 X3.366 F250. 
N0145 G33 Z59.624 K1. 
N0146 G01 X7.066 F250. 
N0147 G00 Z75.124 
N0148 G01 X3.256 F250. 
N0149 G33 Z59.624 K1. 
N0150 G01 X7.066 F250. 
N0151 G00 Z75.124 
N0152 G01 X3.179 F250. 
N0153 G33 Z59.624 K1. 
N0154 G01 X7.066 F250. 
N0155 G00 Z75.124 
N0156 G01 X3.125 F250. 
N0157 G33 Z59.624 K1. 
N0158 G01 X7.066 F250. 
N0159 G00 Z75.124 
N0160 G01 X3.088 F250. 
N0161 G33 Z59.624 K1. 
N0162 G01 X7.066 F250. 
N0163 G00 Z75.124 
N0164 G01 X3.058 F250. 
N0165 G33 Z59.624 K1. 
N0166 G01 X7.066 F250. 
N0167 G00 Z75.124 
N0168 G01 X3.029 F250. 
N0169 G33 Z59.624 K1. 
N0170 G01 X7.066 F250. 
N0171 G00 Z75.124 
N0172 G01 X3. F250. 
N0173 G33 Z59.624 K1. 
N0174 G01 X7.066 F250. 
N0175 ; 
N0176 ;=================== 
N0177 ; Start of Operation PARTOFF 
N0178 ;=================== 
N0179 (MSG, Pause fuer Werkzeugwechsel nach  T06 ) 
N0180 M00 
N0181 T06 M06 
N0182 (WZL Korrektur an) 
N0183 ; Startbewegung (FROM move) 
N0184 G00 X14.437 
N0185 Z107.156 
N0186 G1  (damit Linuxcnc ab hier Bewegungen plottet) 
N0187 G0 
N0188 G97 S2000 M03 
N0189 F9999. 
N0190 G94 X7.333 Z-2. 
N0191 G96 S100 D2000 
N0192 M03 
N0193 G01 X7.133 F250. 
N0194 X-.2 F250. 
N0195 G04 P1 
N0196 X0.0 F250. 
N0197 G00 X7.333 
N0198 M02 
N0199 ; Dauer ca.  1.9  min 
% 
